!!!id: EG028
!!!page: 65-68
!!!COM: Anonymous
!!!LYR: Anonymous
!!!PTL@@FR: Chansons Populaires du Canada
!!!OTL@@FR: C'est dans la ville de Bytown
!!!PUB: G. E. Desbarats
!!!YEM:
!!!PDT: 1865
!!!SMA:
!!!OMD:
!!!AGN-Laforte:
!!!AGN-type:
!!!AGN-rime:
**kern
*clefG2
*k[b-]
*g:
*M2/4
*
*
=1
4..dd
16ee
=2
8.ff
16dd
8.cc/
16a
=3
4g
8.a
16a
=4
4..dd
16ee
!!LO:PB:g=original
=5
8.ee
16dd
8.cc
16a
=6
(8b-q
[2g)
=7
4g]
8.r
16g
=8
4..cc
16a
=9
8.cc
16cc
8.cc
16cc
!!LO:PB:g=original
=10
*M3/4
8.dd
16b-
[4dd^
8.dd]
16dd
=11
*M2/4
8.dd
16dd
8.dd
16dd
=12
8.ee
16g
6gL
6fJ
6g
!!LO:PB:g=original
=13
2a
=14
4dd
8.cc
16dd
=15
4g
8.b-
16dd
=16
8.cc
16a
8.f
16a
=17
(8b-qq
[2g)
!!LO:PB:g=original
=18
8g]
16r
16g
6gL
6fJ
6g
=19
2a
=20
4dd
8.cc
16dd
=21
4g
8.b-
16dd
!!LO:PB:g=original
=22
8.cc
16a
8.f
16a
=23
(8b-qq
[2g)
=24
4g]
8r
==||
*
*
==|
!!!RWG: Key is marked as 'g' but should be G Dorian
!!!RNB: Final eighth rest flipped backward in original
*-
